X: 138
T:Kumi Ori
C:Amitai Ne'eman 1958
O:Israel
M:4/4
L:1/8
K:Dmaj
Q:1/4=150
|:Ad2e f4       |ea2e f4     |\
  e2f2 edcB     |Ad2e d3z    :|
  BABc d2e2     |f4- f4      |\
  f3/2g/2fe d2c2|d3/2e/2de c4|
  BABc d2e2     |f4- f4      |\
  .b2.b2 af3    |^gef2- f4   |



